X: 86
T: No_182.krn
N: Derived from No_182.krn
%%abc-version 2.0
%%abcx-abcm2ps-target-version 5.9.1 (29 Sep 2008)
%%abc-creator hum2abc beta
%%abcx-conversion-date 2019/03/15 08:29:13
%%humdrum-veritas 3851860476
%%humdrum-veritas-data 3699174468
%%linebreak <none>
%%barnumbers 0
L: 1/8
M: 3/4
%%staves {1 2}
V: 1 clef=bass
V: 2 clef=bass
K: C
[V:1] [K:clef=bass][M:3/4]D2D2E3/D/ ||  
[V:2] [K:clef=bass][M:3/4]z G,, (3!accent!G,, z G,, (3!accent!G,, z G,, ||  
[V:1] [M:2/4]C3/C/C2- | 
[V:2] [M:2/4]z4 | 
[V:1] C4 ||  
[V:2] z4 ||  
[V:1] [M:3/4]C2A,2C2 ||  
[V:2] [M:3/4]z6 ||  
[V:1] [M:2/4]D3/C/A,2- | 
[V:2] [M:2/4]z4 | 
[V:1] A,4 ||  
[V:2] z4 ||  
[V:1] [M:3/4]D,2D,2E,3/D,/ ||  
[V:2] [M:3/4]z6 ||  
[V:1] [M:2/4]C,3/C,/C,2- | 
[V:2] [M:2/4]z4 | 
[V:1] C,4 ||  
[V:2] z4 ||  
[V:1] [M:3/4]C,2A,,2C,2 ||  
[V:2] [M:3/4]z6 ||  
[V:1] [M:2/4]D,3/C,/ A,,3/A,,/ | 
[V:2] [M:2/4]z4 | 
[V:1] A,,4- | 
[V:2] z4 | 
[V:1] A,,4 |]  
[V:2] z4 |]  



